images/icons/facebook-fill.svg

<svg width="19" height="20" viewBox="0 0 19 20" fill="none" xmlns="http://www.w3.org/2000/svg">
<path d="M14.3098 0H11.7209C8.57656 0 6.54594 1.98843 6.54594 5.06678V7.03521H3.94016C3.69688 7.03521 3.5 7.22377 3.5 7.45661V10.8421C3.5 11.0749 3.69688 11.2621 3.94016 11.2621H6.54594V19.58C6.54594 19.8114 6.74281 20 6.98469 20H10.655C10.8997 20 11.0966 19.8114 11.0966 19.58V11.2606H14.3084C14.5517 11.2606 14.7486 11.0735 14.7486 10.8407L14.75 7.45661C14.7494 7.40097 14.7376 7.34604 14.7154 7.2952C14.6931 7.24435 14.6609 7.19866 14.6206 7.16092C14.5363 7.0809 14.4252 7.03647 14.3098 7.03664H11.0966V5.42247C11.0966 4.47111 11.3342 3.98829 12.6336 3.98829L14.3098 3.98257C14.5517 3.98257 14.7486 3.79544 14.7486 3.5626V0.41997C14.75 0.188558 14.5531 0 14.3098 0Z" fill="#DFDFDF"/>
</svg>

<svg width="19" height="20" fill="none" xmlns="http://www.w3.org/2000/svg"><path d="M14.31 0h-2.59C8.578 0 6.547 1.988 6.547 5.067v1.968H3.94a.43.43 0 00-.44.422v3.385c0 .233.197.42.44.42h2.606v8.318c0 .231.197.42.439.42h3.67a.431.431 0 00.442-.42v-8.32h3.211a.43.43 0 00.44-.42l.002-3.383a.415.415 0 00-.13-.296.45.45 0 00-.31-.124h-3.213V5.422c0-.95.237-1.434 1.537-1.434l1.676-.005a.43.43 0 00.439-.42V.42a.429.429 0 00-.44-.42z" fill="#DFDFDF"/></svg>
